img/tg-icon.svg

<svg width="31" height="31" viewBox="0 0 31 31" fill="none" xmlns="http://www.w3.org/2000/svg">
<path fill-rule="evenodd" clip-rule="evenodd" d="M15.1846 0.953857C6.90082 0.953857 0.18457 7.67011 0.18457 15.9539C0.18457 24.2376 6.90082 30.9539 15.1846 30.9539C23.4683 30.9539 30.1846 24.2376 30.1846 15.9539C30.1846 7.67011 23.4683 0.953857 15.1846 0.953857ZM22.1371 11.1551C21.9121 13.5264 20.9346 19.2826 20.4383 21.9389C20.2283 23.0639 19.8133 23.4401 19.4133 23.4764C18.5421 23.5564 17.8808 22.9001 17.0371 22.3476C15.7171 21.4826 14.9708 20.9439 13.6896 20.0989C12.2083 19.1226 13.1683 18.5864 14.0121 17.7101C14.2333 17.4801 18.0708 13.9889 18.1458 13.6726C18.1546 13.6326 18.1646 13.4851 18.0758 13.4076C17.9871 13.3301 17.8583 13.3564 17.7658 13.3776C17.6333 13.4076 15.5246 14.8014 11.4383 17.5589C10.8396 17.9701 10.2971 18.1701 9.81082 18.1601C9.27582 18.1489 8.24582 17.8576 7.47957 17.6076C6.54082 17.3026 5.79332 17.1401 5.85832 16.6226C5.89207 16.3526 6.26332 16.0764 6.97332 15.7939C11.3458 13.8889 14.2621 12.6326 15.7208 12.0251C19.8871 10.2926 20.7521 9.99136 21.3171 9.98136C22.0246 9.97136 22.1946 10.5551 22.1371 11.1551Z" fill="white"/>
</svg>

<svg width="31" height="31" viewBox="0 0 31 31" fill="none" xmlns="http://www.w3.org/2000/svg"><path fill-rule="evenodd" clip-rule="evenodd" d="M15.185.954c-8.284 0-15 6.716-15 15 0 8.284 6.716 15 15 15 8.283 0 15-6.716 15-15 0-8.284-6.717-15-15-15zm6.952 10.201c-.225 2.371-1.202 8.128-1.699 10.784-.21 1.125-.625 1.501-1.025 1.537-.87.08-1.532-.576-2.376-1.128-1.32-.865-2.066-1.404-3.347-2.25-1.482-.975-.522-1.512.322-2.388.221-.23 4.059-3.721 4.134-4.037.009-.04.019-.188-.07-.265-.089-.078-.218-.052-.31-.03-.133.03-2.241 1.423-6.328 4.18-.598.412-1.14.612-1.627.602-.535-.011-1.565-.302-2.331-.552-.94-.305-1.687-.468-1.622-.985.034-.27.405-.547 1.115-.83 4.373-1.904 7.29-3.16 8.748-3.768 4.166-1.732 5.031-2.034 5.596-2.044.708-.01.878.574.82 1.174z" fill="#fff"/></svg>
